images/usecases/scada/multi-tenancy.svg

<svg width="92" height="90" viewBox="0 0 92 90" fill="none" xmlns="http://www.w3.org/2000/svg">
<g clip-path="url(#clip0_10346_26565)">
<g filter="url(#filter0_d_10346_26565)">
<path d="M16 60C16 54.4772 20.4772 50 26 50H40C45.5228 50 50 54.4772 50 60V63C50 64.1046 49.1046 65 48 65H18C16.8954 65 16 64.1046 16 63V60Z" fill="#2A7DEC"/>
<path d="M56 63H74V60C74 55.5817 70.4183 52 66 52H53" stroke="#305680" stroke-width="4" stroke-linecap="round" stroke-linejoin="round"/>
<circle cx="33" cy="35" r="10" fill="#2A7DEC"/>
<circle cx="59" cy="35" r="8" stroke="#305680" stroke-width="4" stroke-linecap="round" stroke-linejoin="round"/>
</g>
</g>
<path d="M0.75 24C0.75 11.1594 11.1594 0.75 24 0.75H68C80.8406 0.75 91.25 11.1594 91.25 24V66C91.25 78.8406 80.8406 89.25 68 89.25H24C11.1594 89.25 0.75 78.8406 0.75 66V24Z" stroke="#3E9AF8" stroke-width="1.5"/>
<defs>
<filter id="filter0_d_10346_26565" x="-4" y="5" width="100" height="100" filterUnits="userSpaceOnUse" color-interpolation-filters="sRGB">
<feFlood flood-opacity="0" result="BackgroundImageFix"/>
<feColorMatrix in="SourceAlpha" type="matrix" values="0 0 0 0 0 0 0 0 0 0 0 0 0 0 0 0 0 0 127 0" result="hardAlpha"/>
<feOffset dy="10"/>
<feGaussianBlur stdDeviation="10"/>
<feColorMatrix type="matrix" values="0 0 0 0 0 0 0 0 0 0 0 0 0 0 0 0 0 0 0.1 0"/>
<feBlend mode="normal" in2="BackgroundImageFix" result="effect1_dropShadow_10346_26565"/>
<feBlend mode="normal" in="SourceGraphic" in2="effect1_dropShadow_10346_26565" result="shape"/>
</filter>
<clipPath id="clip0_10346_26565">
<path d="M0 24C0 10.7452 10.7452 0 24 0H68C81.2548 0 92 10.7452 92 24V66C92 79.2548 81.2548 90 68 90H24C10.7452 90 0 79.2548 0 66V24Z" fill="white"/>
</clipPath>
</defs>
</svg>

<svg width="92" height="90" fill="none" xmlns="http://www.w3.org/2000/svg"><g filter="url(#b)" clip-path="url(#a)"><path d="M16 60c0-5.523 4.477-10 10-10h14c5.523 0 10 4.477 10 10v3a2 2 0 0 1-2 2H18a2 2 0 0 1-2-2v-3Z" fill="#2A7DEC"/><path d="M56 63h18v-3a8 8 0 0 0-8-8H53" stroke="#305680" stroke-width="4" stroke-linecap="round" stroke-linejoin="round"/><circle cx="33" cy="35" r="10" fill="#2A7DEC"/><circle cx="59" cy="35" r="8" stroke="#305680" stroke-width="4" stroke-linecap="round" stroke-linejoin="round"/></g><path d="M.75 24C.75 11.16 11.16.75 24 .75h44C80.84.75 91.25 11.16 91.25 24v42c0 12.84-10.41 23.25-23.25 23.25H24C11.16 89.25.75 78.84.75 66V24Z" stroke="#3E9AF8" stroke-width="1.5"/><defs><clipPath id="a"><path d="M0 24C0 10.745 10.745 0 24 0h44c13.255 0 24 10.745 24 24v42c0 13.255-10.745 24-24 24H24C10.745 90 0 79.255 0 66V24Z" fill="#fff"/></clipPath><filter id="b" x="-4" y="5" width="100" height="100" filterUnits="userSpaceOnUse" color-interpolation-filters="sRGB"><feFlood flood-opacity="0" result="BackgroundImageFix"/><feColorMatrix in="SourceAlpha" values="0 0 0 0 0 0 0 0 0 0 0 0 0 0 0 0 0 0 127 0" result="hardAlpha"/><feOffset dy="10"/><feGaussianBlur stdDeviation="10"/><feColorMatrix values="0 0 0 0 0 0 0 0 0 0 0 0 0 0 0 0 0 0 0.1 0"/><feBlend in2="BackgroundImageFix" result="effect1_dropShadow_10346_26565"/><feBlend in="SourceGraphic" in2="effect1_dropShadow_10346_26565" result="shape"/></filter></defs></svg>
